src/assets/img/logout.svg

<svg version="1.2" baseProfile="tiny-ps" xmlns="http://www.w3.org/2000/svg" width="29" height="27"><style></style><g id="1"><g id="Header"><g id="Logout"><path id="Shape 17" d="M15.67 27H3.31C1.49 27 0 25.48 0 23.62V3.38C0 1.52 1.49 0 3.31 0h12.36c1.83 0 3.31 1.52 3.31 3.38v3.75c0 .88-.69 1.59-1.55 1.59-.86 0-1.56-.71-1.56-1.59V3.38a.2.2 0 0 0-.2-.2H3.31a.2.2 0 0 0-.2.2v20.24c0 .11.09.2.2.2h12.36a.2.2 0 0 0 .2-.2v-3.71c0-.87.7-1.58 1.56-1.58.86 0 1.55.71 1.55 1.58v3.71c0 1.86-1.48 3.38-3.31 3.38Zm11.78-11.91H10.5c-.86 0-1.55-.71-1.55-1.59 0-.88.69-1.59 1.55-1.59h16.95c.86 0 1.55.71 1.55 1.59 0 .88-.69 1.59-1.55 1.59Zm0 0c-.39 0-.79-.16-1.09-.47l-3.96-4.07c-.6-.62-.6-1.62 0-2.24.6-.62 1.58-.62 2.18 0l3.97 4.07c.6.62.6 1.62 0 2.24-.31.31-.7.47-1.1.47Zm-3.96 4.07c-.39 0-.79-.16-1.09-.47-.6-.62-.6-1.62 0-2.24l3.96-4.07c.6-.62 1.58-.62 2.19 0 .6.62.6 1.62 0 2.24l-3.97 4.07c-.3.31-.69.47-1.09.47Z" style="fill:#495d75"/></g></g></g></svg>

<svg version="1.2" baseProfile="tiny-ps" xmlns="http://www.w3.org/2000/svg" viewBox="0 0 29 27" width="29" height="27">
	<title>1</title>
	<style>
		tspan { white-space:pre }
		.shp0 { fill: #495d75 } 
	</style>
	<g id="1">
		<g id="Header">
			<g id="Logout">
				<path id="Shape 17" class="shp0" d="M15.67 27L3.31 27C1.49 27 0 25.48 0 23.62L0 3.38C0 1.52 1.49 0 3.31 0L15.67 0C17.5 0 18.98 1.52 18.98 3.38L18.98 7.13C18.98 8.01 18.29 8.72 17.43 8.72C16.57 8.72 15.87 8.01 15.87 7.13L15.87 3.38C15.87 3.27 15.78 3.18 15.67 3.18L3.31 3.18C3.2 3.18 3.11 3.27 3.11 3.38L3.11 23.62C3.11 23.73 3.2 23.82 3.31 23.82L15.67 23.82C15.78 23.82 15.87 23.73 15.87 23.62L15.87 19.91C15.87 19.04 16.57 18.33 17.43 18.33C18.29 18.33 18.98 19.04 18.98 19.91L18.98 23.62C18.98 25.48 17.5 27 15.67 27ZM27.45 15.09L10.5 15.09C9.64 15.09 8.95 14.38 8.95 13.5C8.95 12.62 9.64 11.91 10.5 11.91L27.45 11.91C28.31 11.91 29 12.62 29 13.5C29 14.38 28.31 15.09 27.45 15.09ZM27.45 15.09C27.06 15.09 26.66 14.93 26.36 14.62L22.4 10.55C21.8 9.93 21.8 8.93 22.4 8.31C23 7.69 23.98 7.69 24.58 8.31L28.55 12.38C29.15 13 29.15 14 28.55 14.62C28.24 14.93 27.85 15.09 27.45 15.09ZM23.49 19.16C23.1 19.16 22.7 19 22.4 18.69C21.8 18.07 21.8 17.07 22.4 16.45L26.36 12.38C26.96 11.76 27.94 11.76 28.55 12.38C29.15 13 29.15 14 28.55 14.62L24.58 18.69C24.28 19 23.89 19.16 23.49 19.16Z" />
			</g>
		</g>
	</g>
</svg>
